X: 12446
T: Farewell To Cailroe
R: reel
M: 4/4
K: Amajor
A2 EC DCDE|CA,CE ABcd|e2 ^df eAcA|BGAF GEFD|
EFGE AGEc|d2 ce d2 cd|efed BA A2|BEGB A4:|
A2 ec dcdB|cABG AGED|B,CDB, EDEF|GEBG AGEG|
A2 EA CAEA|FdBA GEFG|A2 ec dcdB|GABG A4:|

